packages/bezier-icons/icons/finger-print.svg

<svg width="24" height="24" viewBox="0 0 24 24" fill="none" xmlns="http://www.w3.org/2000/svg">
<path d="M20.46 18.3V18.31C20.92 18.31 21.34 17.99 21.44 17.52C22.1485 14.1647 21.9662 11.5548 21.9411 11.1958L21.94 11.18C21.8 9.42 21.2 7.74 20.22 6.31C19.91 5.85 19.29 5.74 18.83 6.05C18.37 6.36 18.26 6.98 18.57 7.44C19.35 8.58 19.83 9.93 19.95 11.34C19.96 11.44 20.15 13.91 19.48 17.09C19.36 17.63 19.71 18.17 20.25 18.28C20.32 18.3 20.39 18.3 20.46 18.3Z" fill="#313234"/>
<path d="M1.90001 15.21C2.09001 15.37 2.32001 15.45 2.55001 15.45C2.83001 15.45 3.11001 15.33 3.31001 15.1C3.81001 14.5 4.00001 13.13 3.98001 12.48C3.88001 11.04 4.18001 9.6 4.84001 8.32C5.09001 7.83 4.90001 7.22 4.41001 6.97C3.92001 6.72 3.31001 6.91 3.06001 7.4C2.24001 9 1.86001 10.8 1.98001 12.56C1.99001 13.03 1.83001 13.7 1.78001 13.8C1.43001 14.22 1.48001 14.85 1.90001 15.21Z" fill="#313234"/>
<path d="M5.42001 5.72C5.62001 5.96 5.90001 6.08 6.19001 6.08L6.18001 6.06C6.40001 6.06 6.63001 5.99 6.82001 5.83C8.08001 4.78 9.61001 4.15 11.25 4.02C11.48 4 11.73 3.99 11.98 3.99C13.51 3.99 14.98 4.41 16.25 5.21C16.72 5.51 17.33 5.37 17.63 4.9C17.93 4.43 17.79 3.81 17.32 3.52C15.74 2.53 13.89 2 11.99 2C11.68 2 11.36 2.01 11.09 2.04C9.05001 2.2 7.13001 2.99 5.54001 4.31C5.12001 4.67 5.07001 5.3 5.42001 5.72Z" fill="#313234"/>
<path d="M15.53 22.06C15.67 22.14 15.83 22.17 15.98 22.17L15.99 22.18C16.35 22.18 16.7 21.98 16.88 21.63C17.45 20.5 17.92 19.29 18.26 18.01C18.4 17.47 18.08 16.92 17.55 16.78C17.01 16.64 16.46 16.96 16.32 17.49C16.01 18.63 15.6 19.72 15.09 20.72C14.84 21.21 15.04 21.81 15.53 22.06Z" fill="#313234"/>
<path d="M2.87001 18.16C3.07001 18.37 3.34001 18.47 3.60001 18.47C3.85001 18.47 4.10001 18.38 4.29001 18.2C4.48001 18.03 4.67001 17.86 4.88001 17.72C7.03765 16.2038 6.99435 12.7323 6.99022 12.4008L6.99001 12.38C6.96001 11.83 6.51001 11.41 5.95001 11.42C5.40001 11.44 4.97001 11.91 4.99001 12.46C5.02001 13.33 4.75001 15.36 3.73001 16.08C3.44001 16.28 3.17001 16.51 2.91001 16.75C2.51001 17.13 2.49001 17.76 2.87001 18.16Z" fill="#313234"/>
<path d="M17.82 15.16H17.9C18.42 15.16 18.86 14.77 18.9 14.25C19.04 12.65 18.95 11.55 18.94 11.43C18.63 7.77001 15.64 5.01001 11.98 5.01001C11.75 5.01001 11.52 5.02001 11.34 5.04001C9.11001 5.22001 7.10001 6.48001 5.94001 8.42001C5.66001 8.89001 5.82001 9.51001 6.29001 9.79001C6.76001 10.07 7.38001 9.91001 7.66001 9.44001C8.49001 8.06001 9.92001 7.16001 11.52 7.03001C11.66 7.01001 11.82 7.01001 11.98 7.01001C14.6 7.01001 16.73 8.98001 16.95 11.6C16.95 11.6039 16.9509 11.6168 16.9523 11.6382C16.9655 11.8362 17.0273 12.7627 16.91 14.08C16.86 14.63 17.27 15.11 17.82 15.16Z" fill="#313234"/>
<path d="M8.36001 22.33C8.07001 22.33 7.79001 22.21 7.59001 21.97C7.23001 21.55 7.29001 20.92 7.71001 20.56C8.17001 20.17 8.59 19.73 8.96001 19.23C9.50001 18.51 9.94001 17.67 10.27 16.75C11.1012 14.4302 10.9702 12.2506 10.9605 12.0894L10.96 12.08C10.92 11.53 11.33 11.05 11.88 11C12.44 10.95 12.91 11.36 12.96 11.91C12.96 11.9171 12.9609 11.9346 12.9623 11.9619C12.9821 12.3549 13.1044 14.7731 12.16 17.41C11.76 18.53 11.22 19.54 10.56 20.42C10.1 21.04 9.57001 21.59 8.99001 22.08C8.80001 22.24 8.57001 22.31 8.35001 22.31L8.36001 22.33Z" fill="#313234"/>
<path d="M11.8748 22.9999C11.8798 23 11.8849 23 11.89 23H11.86C11.8649 23 11.8698 23 11.8748 22.9999Z" fill="#313234"/>
<path d="M11.26 22.78C11.4456 22.9265 11.6599 22.9967 11.8748 22.9999C12.1598 22.9956 12.4434 22.8659 12.64 22.63C16.41 17.97 15.95 11.93 15.93 11.67C15.75 9.58 14.05 8 11.96 8C11.84 8 11.72 8.01 11.6 8.02C9.42001 8.19 7.79001 10.12 7.96001 12.3C7.97001 12.34 8.18001 16.61 5.43001 18.53C5.23001 18.67 5.04001 18.83 4.87001 19.01C4.48001 19.4 4.49001 20.03 4.88001 20.42C5.28001 20.81 5.91001 20.8 6.30001 20.41C6.38001 20.32 6.48001 20.24 6.58001 20.17C10.221 17.6223 9.98391 12.4636 9.97053 12.1725C9.9702 12.1654 9.97001 12.16 9.97001 12.16C9.88001 11.06 10.7 10.1 11.79 10.01C12.91 9.91 13.87 10.73 13.96 11.84C13.98 12.06 14.38 17.33 11.11 21.37C10.76 21.8 10.83 22.43 11.26 22.78Z" fill="#313234"/>
</svg>

<svg xmlns="http://www.w3.org/2000/svg" width="24" height="24" fill="none" viewBox="0 0 24 24"><path fill="#313234" d="M20.46 18.3v.01c.46 0 .88-.32.98-.79.708-3.355.526-5.965.501-6.324l-.001-.016c-.14-1.76-.74-3.44-1.72-4.87a.997.997 0 0 0-1.39-.26c-.46.31-.57.93-.26 1.39a8.14 8.14 0 0 1 1.38 3.9c.01.1.2 2.57-.47 5.75a.998.998 0 0 0 .98 1.21M1.9 15.21c.19.16.42.24.65.24.28 0 .56-.12.76-.35.5-.6.69-1.97.67-2.62-.1-1.44.2-2.88.86-4.16.25-.49.06-1.1-.43-1.35s-1.1-.06-1.35.43a9.9 9.9 0 0 0-1.08 5.16c.01.47-.15 1.14-.2 1.24-.35.42-.3 1.05.12 1.41M5.42 5.72c.2.24.48.36.77.36l-.01-.02c.22 0 .45-.07.64-.23a7.86 7.86 0 0 1 4.43-1.81c.23-.02.48-.03.73-.03 1.53 0 3 .42 4.27 1.22.47.3 1.08.16 1.38-.31s.16-1.09-.31-1.38C15.74 2.53 13.89 2 11.99 2c-.31 0-.63.01-.9.04-2.04.16-3.96.95-5.55 2.27-.42.36-.47.99-.12 1.41M15.53 22.06c.14.08.3.11.45.11l.01.01c.36 0 .71-.2.89-.55.57-1.13 1.04-2.34 1.38-3.62.14-.54-.18-1.09-.71-1.23-.54-.14-1.09.18-1.23.71-.31 1.14-.72 2.23-1.23 3.23a1 1 0 0 0 .44 1.34M2.87 18.16c.2.21.47.31.73.31.25 0 .5-.09.69-.27.19-.17.38-.34.59-.48 2.158-1.516 2.114-4.988 2.11-5.32v-.02a1.01 1.01 0 0 0-1.04-.96c-.55.02-.98.49-.96 1.04.03.87-.24 2.9-1.26 3.62-.29.2-.56.43-.82.67a.996.996 0 0 0-.04 1.41"/><path fill="#313234" d="M17.82 15.16h.08c.52 0 .96-.39 1-.91.14-1.6.05-2.7.04-2.82-.31-3.66-3.3-6.42-6.96-6.42-.23 0-.46.01-.64.03a6.96 6.96 0 0 0-5.4 3.38c-.28.47-.12 1.09.35 1.37s1.09.12 1.37-.35a4.98 4.98 0 0 1 3.86-2.41c.14-.02.3-.02.46-.02 2.62 0 4.75 1.97 4.97 4.59l.002.038c.013.198.075 1.125-.042 2.442-.05.55.36 1.03.91 1.08"/><path fill="#313234" d="M8.36 22.33a.99.99 0 0 1-.77-.36 1 1 0 0 1 .12-1.41c.46-.39.88-.83 1.25-1.33.54-.72.98-1.56 1.31-2.48.831-2.32.7-4.5.69-4.66v-.01c-.04-.55.37-1.03.92-1.08a.99.99 0 0 1 1.08.91l.002.052c.02.393.142 2.811-.802 5.448-.4 1.12-.94 2.13-1.6 3.01-.46.62-.99 1.17-1.57 1.66-.19.16-.42.23-.64.23zM11.875 23h.015-.03z"/><path fill="#313234" d="M11.26 22.78c.186.146.4.217.615.22a1.02 1.02 0 0 0 .765-.37c3.77-4.66 3.31-10.7 3.29-10.96C15.75 9.58 14.05 8 11.96 8c-.12 0-.24.01-.36.02-2.18.17-3.81 2.1-3.64 4.28.01.04.22 4.31-2.53 6.23-.2.14-.39.3-.56.48a.996.996 0 0 0 .01 1.41c.4.39 1.03.38 1.42-.01.08-.09.18-.17.28-.24 3.641-2.548 3.404-7.706 3.39-7.998v-.012c-.09-1.1.73-2.06 1.82-2.15 1.12-.1 2.08.72 2.17 1.83.02.22.42 5.49-2.85 9.53-.35.43-.28 1.06.15 1.41"/></svg>
